X:1
T:He Knows
T:He Knows
T:Edward Milo Fuller
T:Emma Graves Dietrich, 1901
T:Public Domain Courtesy of the Cyber Hymnal™
T:Public Domain Courtesy of the Cyber Hymnal™
C:Edward Milo Fuller
Z:Public Domain
Z:Courtesy of the Cyber Hymnal™
%%score ( 1 2 ) ( 3 4 )
L:1/8
Q:1/4=100
M:4/4
K:E
V:1 treble 
V:2 treble 
V:3 bass 
V:4 bass 
V:1
 [G,E]2 | [B,G]3 [EG] [DB]2 [CA]2 x | [B,G]3 [B,G] [G,E]2 [G,E]2 x | [B,G]3 [G,E] [F,D]2 [A,F]2 | %4
w: 1.~Oh,|ach- ing heart, with|sor- row torn, Thy|Lord is near and|
w: 2.~Oh,|faint- ing soul, with|doubts op- pressed, Thy|Lord is near and|
w: 3.~Oh,|wea- ry head, that|fain would rest, Thy|Lord is near and|
w: 4.~Oh,|lone- ly one, live|thou thy best, Thy|Lord is near and|
 [G,E]6 [G,E]2 | [B,G]3 [EG] [=DB]3 [DB] x3 | [CA]2 [=CE]2 [B,G]3 [B,G] x2 | %7
w: knows; He|knows it all— the|feet way worn, The|
w: knows; He|knows it all— how|thou art pressed On|
w: knows; He|knows it all, and|on His breast Thou|
w: knows; He|knows it all, sees|ev- ery test, Yes,|
 [^A,G]3 [A,F] [A,F]2 [A,G]2 x | F4 C2 [B,A]2 | A3 G A2 [B,F]2 | [B,B]3 [EG] [EB]B,E[CA] | %11
w: wea- ry cares and|woes, The load|* of grief in|an- guish borne, The Lord is|
w: ev- ery side with|foes; He waits|* to be thy|cher- ished guest; The Lord is|
w: may- est now re-|pose; Drop ev-|* ery care at|His be- hest, The Lord is|
w: ev- ery tear that|flows; Re- joice,|* faint heart, His|way is best, Thy Lord is|
 G4 [A,DF]2 x2 | [G,B,E]6 ||"^Refrain" B2 | (z2 B2) x6 | (z2 [EB]2) x6 | [Ec]6"^rall." [EF]2 | %17
w: near, He|knows.|||||
w: near, He|knows.|He|||knows, He|
w: near, He|knows.|||||
w: near, He|knows.|||||
 A4 C2 [B,D]2 | [B,E]6 |] %19
w: ||
w: knows, Thy Lord||
w: ||
w: ||
V:2
 x2 | x9 | x9 | x8 | x8 | x11 | x10 | x9 | A,2 D2 x4 | B,6 x2 | x8 | (B,A, E2 D2) x2 | x6 || x2 | %14
 (B6 E2 D2) | (B6 F2 E2) | x8 | E2 D2 x4 | x6 |] %19
V:3
 G,2 | B,3 z E D2 [E,C]2 | B,3 z B, G,2 [E,G,]2 | B,2- [E,G,B,]F, [E,F,]2 [D,A,]2 | G,6 G,2 | %5
w: ~|~ ~ ~ ~|~ ~ ~ ~|~ ~ ~ ~ ~|~ ~|
 B,3 z E z D x4 | [E,C]2 =C2 z2 [E,B,] x3 | ^A,2 z A, A,2 A,2 x | (A,2- [F,A,]2 E,2) [B,,D,A,]2 | %9
w: ~ ~ ~|* ~ ~|~ ~ ~ ~|~ * * ~|
 F,3 ^E, F,2 [B,,A,]2 | G,3 E, !fermata![E,G,] z2 C | (B,E B,4 A,2) | [E,,G,]6 || z2 | %14
w: ~ ~ ~ ~|~ ~ ~ ~|~ * * *|~~||
 z2 [E,G,]2 [B,,F,]2 z2 x2 | z2 [B,,A,]2 [E,G,]2 [E,G,]2 x2 | [A,,A,]6 [A,,C]2 | %17
w: ~ ~|~ ~ ~|~ ~|
 (C2 B,2 A,2) [B,,G,]2 | [E,G,]6 |] %19
w: ~ * * ~|He|
V:4
 x2 | G,,2 E,4 x3 | E,,2 E,4 x3 | B,,4 x4 | E,2 B,,2 E,,2 x2 | E,,2 E,4 =D3 E,2- | x2 E,4 B,3 E, | %7
 F,,3 F,2 F,,4 | B,,4 x4 | B,,6 x2 | E,6 x2 | B,,8 | x6 || x2 | x10 | x10 | x8 | B,,4 x4 | x6 |] %19

